; generated by Slic3r 1.1.7 on 2015-04-01 at 09:19:02

; perimeters extrusion width = 0.35mm
; infill extrusion width = 0.46mm
; solid infill extrusion width = 0.46mm
; top infill extrusion width = 0.46mm

G21 ; set units to millimeters
M107
G28 ; home all axes
M203 X192 Y208 Z3 ; Speed limits to minimize skipped steps when moving really fast courtesy of forum.lulzbot.com user 1013
G90 ; use absolute coordinates
G92 E0
M82 ; use absolute distances for extrusion
G1 F1800.000 E-2.00000
G92 E0
G1 Z0.350 F10800.000
G1 X116.716 Y96.634 F10800.000
G1 E2.00000 F1800.000
G1 X118.495 Y95.186 E2.07647 F1080.000
G1 X121.725 Y94.345 E2.18774
G1 X168.231 Y94.345 E3.73833
G1 X170.490 Y94.742 E3.81479
G1 X172.478 Y95.886 E3.89126 F1080.000
G1 X173.957 Y97.638 E3.96773
G1 X174.490 Y98.798 E4.01027
G1 X188.134 Y138.108 E5.39762
G1 X188.500 Y140.280 E5.47107
G1 X188.500 Y175.030 E6.62969
G1 X188.103 Y177.289 E6.70616
G1 X186.960 Y179.277 E6.78262
G1 X185.207 Y180.756 E6.85909
G1 X183.055 Y181.549 E6.93556
G1 X181.875 Y181.655 E6.97505
G1 X121.028 Y181.655 E9.00379
G1 X118.769 Y181.258 E9.08026
G1 X116.781 Y180.114 E9.15672
G1 X115.302 Y178.362 E9.23319
G1 X114.509 Y176.210 E9.30966
G1 X114.403 Y175.030 E9.34915
G1 X114.404 Y140.162 E10.51169
G1 X115.101 Y100.853 E11.82254
G1 X115.538 Y98.601 E11.89901
G1 X116.689 Y96.679 E11.97372
G1 F1800.000 E9.97372
G92 E0
G1 X167.882 Y164.528 F10800.000
G1 E2.00000 F1800.000
G1 X167.008 Y165.299 E2.03885 F1800.000
G1 X166.179 Y165.888 E2.07278
G1 X165.223 Y166.416 E2.10918
G1 X164.144 Y166.855 E2.14804
G1 X163.166 Y167.137 E2.18196
G1 X162.090 Y167.320 E2.21836
G1 X161.027 Y167.380 E2.25384
G1 X149.991 Y167.380 E2.62180
G1 X148.891 Y167.317 E2.65853
G1 X147.834 Y167.137 E2.69428
G1 X146.786 Y166.835 E2.73064
G1 X145.847 Y166.446 E2.76455
G1 X144.824 Y165.890 E2.80335
G1 X143.935 Y165.259 E2.83972
G1 X143.122 Y164.532 E2.87608
G1 X142.395 Y163.719 E2.91244
G1 X141.807 Y162.889 E2.94634
G1 X141.237 Y161.874 E2.98515
G1 X140.819 Y160.867 E3.02152
G1 X140.517 Y159.819 E3.05788
G1 X140.347 Y158.816 E3.09178
G1 X140.274 Y157.655 E3.13059
G1 X140.347 Y156.493 E3.16939
G1 X140.517 Y155.491 E3.20330
G1 X140.819 Y154.443 E3.23966
G1 X141.272 Y153.371 E3.27847
G1 X141.764 Y152.481 E3.31237
G1 X142.395 Y151.591 E3.34873
G1 X143.177 Y150.729 E3.38754
G1 X143.935 Y150.051 E3.42144
G1 X144.824 Y149.420 E3.45781
G1 X145.779 Y148.892 E3.49416
G1 X146.786 Y148.475 E3.53053
G1 X147.834 Y148.173 E3.56689
G1 X148.952 Y147.987 E3.60467
G1 X149.991 Y147.930 E3.63937
G1 X161.027 Y147.930 E4.00733
G1 X162.016 Y147.985 E4.04034
G1 X163.166 Y148.173 E4.07919 F1800.000
G1 X164.215 Y148.475 E4.11559
G1 X165.223 Y148.893 E4.15199
G1 X166.114 Y149.386 E4.18592
G1 X167.068 Y150.054 E4.22477
G1 X167.882 Y150.782 E4.26117
G1 X168.609 Y151.597 E4.29757
G1 X169.198 Y152.426 E4.33150
G1 X169.767 Y153.443 E4.37035
G1 X170.183 Y154.450 E4.40668
G1 X170.484 Y155.496 E4.44297
G1 X170.665 Y156.569 E4.47925
G1 X170.722 Y157.583 E4.51309
G1 X170.665 Y158.741 E4.55175
G1 X170.484 Y159.813 E4.58803
G1 X170.183 Y160.859 E4.62431
G1 X169.732 Y161.932 E4.66310
G1 X169.240 Y162.822 E4.69703
G1 X168.609 Y163.713 E4.73342
G1 X167.917 Y164.489 E4.76807
G1 X167.437 Y164.087 F10800.000
G1 X166.676 Y164.768 E4.80212 F1260.000
G1 X165.844 Y165.359 E4.83616
G1 X164.914 Y165.868 E4.87150
G1 X164.007 Y166.244 E4.90424
G1 X163.026 Y166.527 E4.93828
G1 X162.019 Y166.698 E4.97232
G1 X161.010 Y166.755 E5.00604
G1 X149.997 Y166.755 E5.37323
G1 X148.974 Y166.697 E5.40739
G1 X147.974 Y166.527 E5.44120
G1 X146.994 Y166.244 E5.47522
G1 X146.087 Y165.869 E5.50796
G1 X145.158 Y165.360 E5.54326
G1 X144.326 Y164.770 E5.57729
G1 X143.565 Y164.090 E5.61131
G1 X142.910 Y163.358 E5.64405
G1 X142.294 Y162.496 E5.67935
G1 X141.801 Y161.603 E5.71338
G1 X141.410 Y160.660 E5.74740
G1 X141.138 Y159.717 E5.78014
G1 X140.957 Y158.674 E5.81544
G1 X140.899 Y157.655 E5.84947
G1 X140.963 Y156.598 E5.88477
G1 X141.128 Y155.630 E5.91751
G1 X141.410 Y154.649 E5.95153
G1 X141.819 Y153.673 E5.98684
G1 X142.294 Y152.813 E6.01957
G1 X142.885 Y151.981 E6.05360
G1 X143.565 Y151.220 E6.08762
G1 X144.357 Y150.518 E6.12293
G1 X145.158 Y149.950 E6.15566
G1 X146.051 Y149.456 E6.18968
G1 X146.994 Y149.065 E6.22371
G1 X148.012 Y148.776 E6.25902
G1 X148.974 Y148.613 E6.29153
G1 X149.997 Y148.555 E6.32570
G1 X161.010 Y148.555 E6.69289 F1260.000
G1 X162.019 Y148.612 E6.72660
G1 X163.026 Y148.783 E6.76064
G1 X164.007 Y149.065 E6.79468
G1 X164.914 Y149.441 E6.82743
G1 X165.844 Y149.951 E6.86277
G1 X166.676 Y150.542 E6.89681
G1 X167.437 Y151.222 E6.93085
G1 X168.117 Y151.984 E6.96490
G1 X168.708 Y152.817 E6.99894
G1 X169.183 Y153.676 E7.03168
G1 X169.591 Y154.653 E7.06697
G1 X169.873 Y155.633 E7.10096
G1 X170.043 Y156.637 E7.13494
G1 X170.101 Y157.655 E7.16891
G1 X170.043 Y158.672 E7.20289
G1 X169.873 Y159.677 E7.23687
G1 X169.591 Y160.657 E7.27085
G1 X169.201 Y161.599 E7.30485
G1 X168.708 Y162.493 E7.33889
G1 X168.117 Y163.326 E7.37294
G1 X167.472 Y164.048 E7.40523
G1 F1800.000 E5.40523
G92 E0
G1 X149.895 Y148.220 F10800.000
G1 X180.900 Y174.055 F10800.000
G1 E2.00000 F1800.000
G1 X122.003 Y174.055 E3.96373 F1800.000
G1 X122.003 Y141.255 E5.05734
G1 X180.900 Y141.255 E7.02107
G1 X180.900 Y174.002 E8.11293
G1 X181.525 Y174.680 F10800.000
G1 X121.378 Y174.680 E10.11833 F1260.000
G1 X121.378 Y140.630 E11.25361
G1 X181.525 Y140.630 E13.25901
G1 X181.525 Y174.627 E14.39254
G1 X181.222 Y174.505 F10800.000
G1 X180.467 Y163.087 F10800.000
G1 X169.534 Y152.154 E14.90806 F1080.000
G1 X170.444 Y153.953 F10800.000
G1 X180.467 Y163.977 E15.38068 F1080.000
G1 X180.467 Y164.867 E15.41035
G1 X170.869 Y155.268 E15.86294
G1 X171.069 Y156.358 E15.89990
G1 X180.467 Y165.757 E16.34304
G1 X180.467 Y166.647 E16.37272
G1 X171.141 Y157.321 E16.81245
G1 X171.130 Y158.199 E16.84173
G1 X180.467 Y167.536 E17.28201
G1 X180.467 Y168.426 E17.31169
G1 X171.057 Y159.016 E17.75541
G1 X170.923 Y159.773 E17.78102
G1 X180.467 Y169.316 E18.23103
G1 X180.467 Y170.206 E18.26070
G1 X170.742 Y160.482 E18.71924
G1 X170.528 Y161.158 E18.74288
G1 X180.467 Y171.096 E19.21151
G1 X180.467 Y171.986 E19.24118
G1 X170.268 Y161.787 E19.72209
G1 X169.976 Y162.385 E19.74427
G1 X180.467 Y172.876 E20.23896
G1 X180.323 Y173.622 E20.26429
G1 X169.659 Y162.958 E20.76710
G1 X169.299 Y163.488 E20.78845
G1 X179.433 Y173.622 E21.26629
G1 X178.543 Y173.622 E21.29596
G1 X168.927 Y164.006 E21.74935
G1 X168.508 Y164.477 E21.77037
G1 X177.653 Y173.622 E22.20158
G1 X176.763 Y173.622 E22.23125
G1 X168.076 Y164.934 E22.64089
G1 X167.603 Y165.352 E22.66191
G1 X175.873 Y173.622 E23.05186
G1 X174.983 Y173.622 E23.08154
G1 X167.115 Y165.754 E23.45252
G1 X166.595 Y166.124 E23.47380
G1 X174.093 Y173.622 E23.82737
G1 X173.203 Y173.622 E23.85704
G1 X166.040 Y166.459 E24.19478
G1 X165.467 Y166.776 E24.21661
G1 X172.313 Y173.622 E24.53940
G1 X171.423 Y173.622 E24.56908
G1 X164.844 Y167.042 E24.87931
G1 X164.201 Y167.289 E24.90228
G1 X170.533 Y173.622 E25.20088
G1 X169.643 Y173.622 E25.23055
G1 X163.510 Y167.488 E25.51975
G1 X162.774 Y167.643 E25.54481
G1 X168.753 Y173.622 E25.82674
G1 X167.863 Y173.622 E25.85641
G1 X162.000 Y167.759 E26.13288
G1 X161.158 Y167.806 E26.16101
G1 X166.974 Y173.622 E26.43524
G1 X166.084 Y173.622 E26.46491
G1 X160.274 Y167.813 E26.73883
G1 X159.384 Y167.813 E26.76850
G1 X165.194 Y173.622 E27.04241
G1 X164.304 Y173.622 E27.07209
G1 X158.494 Y167.813 E27.34600
G1 X157.605 Y167.813 E27.37567
G1 X163.414 Y173.622 E27.64959
G1 X162.524 Y173.622 E27.67926
G1 X156.715 Y167.813 E27.95318
G1 X155.825 Y167.813 E27.98285
G1 X161.634 Y173.622 E28.25676
G1 X160.744 Y173.622 E28.28643
G1 X154.935 Y167.813 E28.56035
G1 X154.045 Y167.813 E28.59002
G1 X159.854 Y173.622 E28.86394
G1 X158.964 Y173.622 E28.89361
G1 X153.155 Y167.813 E29.16752
G1 X152.265 Y167.813 E29.19720
G1 X158.074 Y173.622 E29.47111
G1 X157.184 Y173.622 E29.50078
G1 X151.375 Y167.813 E29.77470
G1 X150.485 Y167.813 E29.80437
G1 X156.294 Y173.622 E30.07828
G1 X155.404 Y173.622 E30.10796
G1 X149.572 Y167.789 E30.38297
G1 X148.598 Y167.706 E30.41554
G1 X154.514 Y173.622 E30.69447
G1 X153.624 Y173.622 E30.72415
G1 X147.491 Y167.489 E31.01334
G1 X146.154 Y167.042 F10800.000
G1 X152.734 Y173.622 E31.32361 F1080.000
G1 X151.844 Y173.622 E31.35328
G1 X144.200 Y165.978 E31.71371
G1 X141.677 Y163.455 F10800.000
G1 X122.436 Y144.213 E32.62098 F1080.000
G1 X122.436 Y143.323 E32.65065
G1 X140.613 Y161.501 E33.50775
G1 X140.169 Y160.166 E33.55465
G1 X122.436 Y142.433 E34.39079
G1 X122.580 Y141.688 E34.41612
G1 X139.949 Y159.056 E35.23509
G1 X139.864 Y158.082 E35.26771
G1 X123.470 Y141.688 E36.04072
G1 X124.360 Y141.688 E36.07039
G1 X139.866 Y157.194 E36.80153
G1 X139.929 Y156.367 E36.82916
G1 X125.250 Y141.688 E37.52133
G1 X126.140 Y141.688 E37.55100
G1 X140.059 Y155.607 E38.20730
G1 X140.241 Y154.899 E38.23166
G1 X127.030 Y141.688 E38.85459
G1 X127.920 Y141.688 E38.88427
G1 X140.445 Y154.214 E39.47488
G1 X140.706 Y153.584 E39.49759
G1 X128.810 Y141.688 E40.05854
G1 X129.700 Y141.688 E40.08821
G1 X140.993 Y152.981 E40.62071
G1 X141.310 Y152.408 E40.64255
G1 X130.590 Y141.688 E41.14802
G1 X131.480 Y141.688 E41.17769
G1 X141.664 Y151.873 E41.65793
G1 X142.034 Y151.352 E41.67921
G1 X132.369 Y141.688 E42.13491
G1 X133.259 Y141.688 E42.16458
G1 X142.451 Y150.879 E42.59797
G1 X142.877 Y150.416 E42.61897
G1 X134.149 Y141.688 E43.03050
G1 X135.039 Y141.688 E43.06018
G1 X143.347 Y149.996 E43.45191
G1 X143.834 Y149.592 E43.47298
G1 X135.929 Y141.688 E43.84568
G1 X136.819 Y141.688 E43.87536
G1 X144.354 Y149.223 E44.23064
G1 X144.905 Y148.883 E44.25221
G1 X137.709 Y141.688 E44.59149
G1 X138.599 Y141.688 E44.62116
G1 X145.481 Y148.570 E44.94566
G1 X146.094 Y148.293 E44.96809
G1 X139.489 Y141.688 E45.27953
G1 X140.379 Y141.688 E45.30920
G1 X146.731 Y148.040 E45.60872
G1 X147.422 Y147.841 E45.63269
G1 X141.269 Y141.688 E45.92282
G1 X142.159 Y141.688 E45.95249
G1 X148.151 Y147.680 E46.23502
G1 X148.919 Y147.558 E46.26095
G1 X143.049 Y141.688 E46.53772
G1 X143.939 Y141.688 E46.56739
G1 X149.761 Y147.509 E46.84190
G1 X150.638 Y147.497 E46.87116
G1 X144.829 Y141.688 E47.14507
G1 X145.719 Y141.688 E47.17474
G1 X151.528 Y147.497 E47.44866
G1 X152.418 Y147.497 E47.47833
G1 X146.609 Y141.688 E47.75224
G1 X147.499 Y141.688 E47.78192
G1 X153.308 Y147.497 E48.05583
G1 X154.198 Y147.497 E48.08550
G1 X148.389 Y141.688 E48.35942
G1 X149.279 Y141.688 E48.38909
G1 X155.088 Y147.497 E48.66300
G1 X155.978 Y147.497 E48.69268
G1 X150.169 Y141.688 E48.96659
G1 X151.059 Y141.688 E48.99626
G1 X156.868 Y147.497 E49.27018
G1 X157.758 Y147.497 E49.29985
G1 X151.948 Y141.688 E49.57376
G1 X152.838 Y141.688 E49.60344
G1 X158.648 Y147.497 E49.87735
G1 X159.538 Y147.497 E49.90702
G1 X153.728 Y141.688 E50.18094
G1 X154.618 Y141.688 E50.21061
G1 X160.428 Y147.497 E50.48453
G1 X161.334 Y147.514 E50.51476
G1 X155.508 Y141.688 E50.78945
G1 X156.398 Y141.688 E50.81912
G1 X162.296 Y147.586 E51.09722
G1 X163.386 Y147.785 E51.13416
G1 X157.288 Y141.688 E51.42168
G1 X158.178 Y141.688 E51.45135
G1 X164.706 Y148.216 E51.75915
G1 X166.498 Y149.118 F10800.000
G1 X159.068 Y141.688 E52.10948 F1080.000
G1 X159.958 Y141.688 E52.13916
G1 X180.467 Y162.197 E53.10620
G1 X180.467 Y161.307 E53.13587
G1 X160.848 Y141.688 E54.06095
G1 X161.738 Y141.688 E54.09062
G1 X180.467 Y160.417 E54.97373
G1 X180.467 Y159.527 E55.00341
G1 X162.628 Y141.688 E55.84456
G1 X163.518 Y141.688 E55.87423
G1 X180.467 Y158.637 E56.67342
G1 X180.467 Y157.747 E56.70309
G1 X164.408 Y141.688 E57.46032
G1 X165.298 Y141.688 E57.48999
G1 X180.467 Y156.857 E58.20525
G1 X180.467 Y155.967 E58.23492
G1 X166.188 Y141.688 E58.90822
G1 X167.078 Y141.688 E58.93789
G1 X180.467 Y155.077 E59.56923
G1 X180.467 Y154.187 E59.59890
G1 X167.968 Y141.688 E60.18827
G1 X168.858 Y141.688 E60.21794
G1 X180.467 Y153.297 E60.76535
G1 X180.467 Y152.407 E60.79502
G1 X169.748 Y141.688 E61.30047
G1 X170.638 Y141.688 E61.33014
G1 X180.467 Y151.517 E61.79362
G1 X180.467 Y150.627 E61.82330
G1 X171.528 Y141.688 E62.24482
G1 X172.417 Y141.688 E62.27449
G1 X180.467 Y149.737 E62.65404
G1 X180.467 Y148.847 E62.68372
G1 X173.307 Y141.688 E63.02131
G1 X174.197 Y141.688 E63.05098
G1 X180.467 Y147.957 E63.34661
G1 X180.467 Y147.068 E63.37628
G1 X175.087 Y141.688 E63.62995
G1 X175.977 Y141.688 E63.65962
G1 X180.467 Y146.178 E63.87132
G1 X180.467 Y145.288 E63.90099
G1 X176.867 Y141.688 E64.07073
G1 X177.757 Y141.688 E64.10041
G1 X180.467 Y144.398 E64.22818
G1 X180.467 Y143.508 E64.25785
G1 X178.647 Y141.688 E64.34367
G1 X179.537 Y141.688 E64.37334
G1 X180.467 Y142.618 E64.41719
G1 X180.467 Y141.728 E64.44686
G1 X180.427 Y141.688 E64.44875
G1 X180.875 Y150.835 F10800.000
G1 X160.875 Y174.030 F10800.000
G1 X150.954 Y173.622 F10800.000
G1 X122.436 Y145.103 E65.79346 F1080.000
G1 X122.436 Y145.993 E65.82313
G1 X150.064 Y173.622 E67.12588
G1 X149.174 Y173.622 E67.15555
G1 X122.436 Y146.883 E68.41633
G1 X122.436 Y147.773 E68.44601
G1 X148.284 Y173.622 E69.66483
G1 X147.394 Y173.622 E69.69450
G1 X122.436 Y148.663 E70.87136
G1 X122.436 Y149.553 E70.90103
G1 X146.505 Y173.622 E72.03592
G1 X145.615 Y173.622 E72.06559
G1 X122.436 Y150.443 E73.15853
G1 X122.436 Y151.333 E73.18820
G1 X144.725 Y173.622 E74.23917
G1 X143.835 Y173.622 E74.26884
G1 X122.436 Y152.223 E75.27784
G1 X122.436 Y153.113 E75.30751
G1 X142.945 Y173.622 E76.27456
G1 X142.055 Y173.622 E76.30423
G1 X122.436 Y154.003 E77.22931
G1 X122.436 Y154.893 E77.25898
G1 X141.165 Y173.622 E78.14209
G1 X140.275 Y173.622 E78.17176
G1 X122.436 Y155.783 E79.01292
G1 X122.436 Y156.673 E79.04259
G1 X139.385 Y173.622 E79.84178
G1 X138.495 Y173.622 E79.87145
G1 X122.436 Y157.563 E80.62867
G1 X122.436 Y158.453 E80.65835
G1 X137.605 Y173.622 E81.37361
G1 X136.715 Y173.622 E81.40328
G1 X122.436 Y159.343 E82.07658
G1 X122.436 Y160.233 E82.10625
G1 X135.825 Y173.622 E82.73759
G1 X134.935 Y173.622 E82.76726
G1 X122.436 Y161.123 E83.35663
G1 X122.436 Y162.013 E83.38630
G1 X134.045 Y173.622 E83.93371
G1 X133.155 Y173.622 E83.96338
G1 X122.436 Y162.902 E84.46883
G1 X122.436 Y163.792 E84.49850
G1 X132.265 Y173.622 E84.96198
G1 X131.375 Y173.622 E84.99165
G1 X122.436 Y164.682 E85.41317
G1 X122.436 Y165.572 E85.44285
G1 X130.485 Y173.622 E85.82240
G1 X129.595 Y173.622 E85.85207
G1 X122.436 Y166.462 E86.18967
G1 X122.436 Y167.352 E86.21934
G1 X128.705 Y173.622 E86.51497
G1 X127.815 Y173.622 E86.54464
G1 X122.436 Y168.242 E86.79830
G1 X122.436 Y169.132 E86.82798
G1 X126.925 Y173.622 E87.03968
G1 X126.036 Y173.622 E87.06935
G1 X122.436 Y170.022 E87.23909
G1 X122.436 Y170.912 E87.26876
G1 X125.146 Y173.622 E87.39654
G1 X124.256 Y173.622 E87.42621
G1 X122.436 Y171.802 E87.51202
G1 X122.436 Y172.692 E87.54170
G1 X123.366 Y173.622 E87.58555
G1 X122.476 Y173.622 E87.61522
G1 X122.436 Y173.582 E87.61711
G1 F1800.000 E85.61711
G92 E0
G1 X151.105 Y109.645 F10800.000
G1 E2.00000 F1800.000
G1 X150.420 Y109.211 E2.02701 F1800.000
G1 X149.866 Y108.620 E2.05404
G1 X149.475 Y107.910 E2.08105
G1 X149.274 Y107.125 E2.10807
G1 X149.274 Y106.315 E2.13508
G1 X149.475 Y105.530 E2.16210
G1 X149.866 Y104.820 E2.18912
G1 X150.420 Y104.229 E2.21613
G1 X151.105 Y103.795 E2.24315
G1 X151.875 Y103.545 E2.27017
G1 X152.684 Y103.494 E2.29719
G1 X153.345 Y103.620 E2.31962
G1 X153.480 Y103.646 E2.32420 F1800.000
G1 X154.213 Y103.991 E2.35121
G1 X154.837 Y104.507 E2.37823
G1 X155.314 Y105.163 E2.40525
G1 X155.612 Y105.916 E2.43227
G1 X155.696 Y106.584 E2.45471
G1 X155.714 Y106.720 E2.45929
G1 X155.612 Y107.524 E2.48631
G1 X155.314 Y108.278 E2.51332
G1 X154.837 Y108.933 E2.54034
G1 X154.213 Y109.450 E2.56736
G1 X153.480 Y109.795 E2.59438
G1 X152.684 Y109.946 E2.62139
G1 X151.875 Y109.895 E2.64841
G1 X151.154 Y109.661 E2.67368
G1 X151.373 Y109.075 F10800.000
G1 X150.822 Y108.726 E2.69543 F1260.000
G1 X150.375 Y108.250 E2.71718
G1 X150.061 Y107.678 E2.73893
G1 X149.899 Y107.046 E2.76069
G1 X149.899 Y106.394 E2.78244
G1 X150.061 Y105.762 E2.80419
G1 X150.375 Y105.190 E2.82595
G1 X150.822 Y104.715 E2.84770
G1 X151.373 Y104.365 E2.86945
G1 X151.993 Y104.163 E2.89121
G1 X152.586 Y104.126 E2.91102
G1 X152.644 Y104.123 E2.91296 F1260.000
