; generated by Slic3r 1.1.7 on 2015-03-31 at 14:53:59

; perimeters extrusion width = 0.35mm
; infill extrusion width = 0.46mm
; solid infill extrusion width = 0.46mm
; top infill extrusion width = 0.46mm

G21 ; set units to millimeters
M107
G28 ; home all axes
M203 X192 Y208 Z3 ; Speed limits to minimize skipped steps when moving really fast courtesy of forum.lulzbot.com user 1013
G90 ; use absolute coordinates
G92 E0
M82 ; use absolute distances for extrusion
G1 F1800.000 E-2.00000
G92 E0
G1 Z0.350 F10800.000
G1 X115.943 Y116.378 F10800.000
G1 E2.00000 F1800.000
G1 X117.696 Y114.899 E2.07647 F1080.000
G1 X119.848 Y114.106 E2.15293
G1 X121.028 Y114.000 E2.19243
G1 X181.875 Y114.000 E4.22117
G1 X184.134 Y114.397 E4.29764
G1 X186.122 Y115.540 E4.37410 F1080.000
G1 X187.601 Y117.293 E4.45057
G1 X188.394 Y119.445 E4.52704
G1 X188.500 Y120.625 E4.56653
G1 X188.500 Y155.375 E5.72515
G1 X188.103 Y157.634 E5.80162
G1 X186.960 Y159.622 E5.87808
G1 X185.207 Y161.101 E5.95455
G1 X183.055 Y161.894 E6.03102
G1 X181.875 Y162.000 E6.07051
G1 X121.028 Y162.000 E8.09925
G1 X118.769 Y161.603 E8.17572
G1 X116.781 Y160.460 E8.25219
G1 X115.302 Y158.707 E8.32865
G1 X114.509 Y156.555 E8.40512
G1 X114.403 Y155.375 E8.44461
G1 X114.403 Y120.625 E9.60323
G1 X114.800 Y118.366 E9.67970
G1 X115.917 Y116.424 E9.75442
G1 F1800.000 E7.75442
G92 E0
G1 X167.882 Y144.873 F10800.000
G1 E2.00000 F1800.000
G1 X167.008 Y145.644 E2.03885 F1800.000
G1 X166.178 Y146.233 E2.07278
G1 X165.223 Y146.762 E2.10918
G1 X164.144 Y147.200 E2.14804
G1 X163.166 Y147.482 E2.18196
G1 X162.090 Y147.665 E2.21836
G1 X161.027 Y147.725 E2.25384
G1 X149.991 Y147.725 E2.62180
G1 X148.891 Y147.662 E2.65853
G1 X147.834 Y147.482 E2.69428
G1 X146.786 Y147.180 E2.73064
G1 X145.847 Y146.791 E2.76455
G1 X144.824 Y146.235 E2.80335
G1 X143.935 Y145.604 E2.83972
G1 X143.122 Y144.877 E2.87608
G1 X142.395 Y144.064 E2.91244
G1 X141.807 Y143.234 E2.94634
G1 X141.237 Y142.220 E2.98515
G1 X140.819 Y141.212 E3.02152
G1 X140.517 Y140.164 E3.05788
G1 X140.347 Y139.162 E3.09178
G1 X140.274 Y138.000 E3.13059
G1 X140.347 Y136.838 E3.16939
G1 X140.517 Y135.836 E3.20330
G1 X140.819 Y134.788 E3.23966
G1 X141.272 Y133.716 E3.27847
G1 X141.764 Y132.826 E3.31237
G1 X142.395 Y131.936 E3.34873
G1 X143.177 Y131.074 E3.38754
G1 X143.935 Y130.396 E3.42144
G1 X144.824 Y129.765 E3.45781
G1 X145.779 Y129.237 E3.49416
G1 X146.786 Y128.820 E3.53053
G1 X147.834 Y128.518 E3.56689
G1 X148.952 Y128.332 E3.60467
G1 X149.991 Y128.275 E3.63937
G1 X161.027 Y128.275 E4.00733
G1 X162.016 Y128.331 E4.04034
G1 X163.166 Y128.518 E4.07919 F1800.000
G1 X164.215 Y128.820 E4.11559
G1 X165.223 Y129.238 E4.15199
G1 X166.114 Y129.731 E4.18592
G1 X167.068 Y130.399 E4.22477
G1 X167.882 Y131.127 E4.26117
G1 X168.609 Y131.942 E4.29757
G1 X169.198 Y132.772 E4.33150
G1 X169.767 Y133.788 E4.37035
G1 X170.183 Y134.795 E4.40668
G1 X170.484 Y135.841 E4.44297
G1 X170.665 Y136.914 E4.47925
G1 X170.722 Y137.928 E4.51309
G1 X170.665 Y139.086 E4.55175
G1 X170.484 Y140.159 E4.58803
G1 X170.183 Y141.205 E4.62431
G1 X169.732 Y142.277 E4.66310
G1 X169.240 Y143.167 E4.69703
G1 X168.609 Y144.058 E4.73342
G1 X167.917 Y144.834 E4.76807
G1 X167.437 Y144.433 F10800.000
G1 X166.676 Y145.113 E4.80212 F1260.000
G1 X165.844 Y145.704 E4.83616
G1 X164.914 Y146.214 E4.87150
G1 X164.007 Y146.589 E4.90424
G1 X163.026 Y146.872 E4.93828
G1 X162.019 Y147.043 E4.97232
G1 X161.010 Y147.100 E5.00604
G1 X149.997 Y147.100 E5.37323
G1 X148.974 Y147.042 E5.40739
G1 X147.974 Y146.872 E5.44120
G1 X146.994 Y146.590 E5.47522
G1 X146.087 Y146.214 E5.50796
G1 X145.158 Y145.705 E5.54326
G1 X144.326 Y145.115 E5.57729
G1 X143.565 Y144.435 E5.61131
G1 X142.910 Y143.703 E5.64405
G1 X142.294 Y142.842 E5.67935
G1 X141.801 Y141.948 E5.71338
G1 X141.410 Y141.006 E5.74740
G1 X141.138 Y140.062 E5.78014
G1 X140.957 Y139.019 E5.81544
G1 X140.899 Y138.000 E5.84947
G1 X140.963 Y136.943 E5.88477
G1 X141.128 Y135.975 E5.91751
G1 X141.410 Y134.994 E5.95153
G1 X141.819 Y134.018 E5.98684
G1 X142.294 Y133.158 E6.01957
G1 X142.885 Y132.326 E6.05360
G1 X143.565 Y131.565 E6.08762
G1 X144.357 Y130.863 E6.12293
G1 X145.158 Y130.295 E6.15566
G1 X146.051 Y129.801 E6.18968
G1 X146.994 Y129.410 E6.22371
G1 X148.012 Y129.121 E6.25902
G1 X148.974 Y128.958 E6.29153
G1 X149.997 Y128.900 E6.32570
G1 X161.010 Y128.900 E6.69289 F1260.000
G1 X162.019 Y128.957 E6.72660
G1 X163.026 Y129.128 E6.76064
G1 X164.007 Y129.411 E6.79468
G1 X164.914 Y129.786 E6.82743
G1 X165.844 Y130.296 E6.86277
G1 X166.676 Y130.887 E6.89681
G1 X167.437 Y131.567 E6.93085
G1 X168.117 Y132.329 E6.96490
G1 X168.708 Y133.162 E6.99894
G1 X169.183 Y134.022 E7.03168
G1 X169.591 Y134.998 E7.06697
G1 X169.873 Y135.978 E7.10096
G1 X170.043 Y136.983 E7.13494
G1 X170.101 Y138.000 E7.16891
G1 X170.043 Y139.017 E7.20289
G1 X169.873 Y140.022 E7.23687
G1 X169.591 Y141.002 E7.27085
G1 X169.201 Y141.944 E7.30485
G1 X168.708 Y142.838 E7.33889
G1 X168.117 Y143.671 E7.37294
G1 X167.472 Y144.393 E7.40523
G1 F1800.000 E5.40523
G92 E0
G1 X149.895 Y128.565 F10800.000
G1 X180.900 Y154.400 F10800.000
G1 E2.00000 F1800.000
G1 X122.003 Y154.400 E3.96373 F1800.000
G1 X122.003 Y121.600 E5.05734
G1 X180.900 Y121.600 E7.02107
G1 X180.900 Y154.348 E8.11293
G1 X181.525 Y155.025 F10800.000
G1 X121.378 Y155.025 E10.11833 F1260.000
G1 X121.378 Y120.975 E11.25361
G1 X181.525 Y120.975 E13.25901
G1 X181.525 Y154.973 E14.39254
G1 X181.222 Y154.850 F10800.000
G1 X180.467 Y143.432 F10800.000
G1 X169.534 Y132.499 E14.90806 F1080.000
G1 X170.444 Y134.298 F10800.000
G1 X180.467 Y144.322 E15.38068 F1080.000
G1 X180.467 Y145.212 E15.41035
G1 X170.869 Y135.613 E15.86294
G1 X171.069 Y136.704 E15.89990
G1 X180.467 Y146.102 E16.34304
G1 X180.467 Y146.992 E16.37272
G1 X171.141 Y137.666 E16.81245
G1 X171.130 Y138.544 E16.84173
G1 X180.467 Y147.882 E17.28201
G1 X180.467 Y148.772 E17.31169
G1 X171.057 Y139.361 E17.75541
G1 X170.923 Y140.118 E17.78102
G1 X180.467 Y149.662 E18.23103
G1 X180.467 Y150.552 E18.26070
G1 X170.742 Y140.827 E18.71924
G1 X170.528 Y141.503 E18.74288
G1 X180.467 Y151.441 E19.21151
G1 X180.467 Y152.331 E19.24118
G1 X170.268 Y142.132 E19.72209
G1 X169.976 Y142.730 E19.74427
G1 X180.467 Y153.221 E20.23896
G1 X180.323 Y153.967 E20.26429
G1 X169.659 Y143.303 E20.76710
G1 X169.299 Y143.833 E20.78845
G1 X179.433 Y153.967 E21.26629
G1 X178.543 Y153.967 E21.29596
G1 X168.927 Y144.352 E21.74935
G1 X168.508 Y144.822 E21.77037
G1 X177.653 Y153.967 E22.20158
G1 X176.763 Y153.967 E22.23125
G1 X168.076 Y145.280 E22.64089
G1 X167.603 Y145.697 E22.66191
G1 X175.873 Y153.967 E23.05186
G1 X174.983 Y153.967 E23.08154
G1 X167.115 Y146.099 E23.45252
G1 X166.595 Y146.469 E23.47380
G1 X174.093 Y153.967 E23.82737
G1 X173.203 Y153.967 E23.85704
G1 X166.040 Y146.804 E24.19478
G1 X165.467 Y147.121 E24.21661
G1 X172.313 Y153.967 E24.53940
G1 X171.423 Y153.967 E24.56908
G1 X164.844 Y147.388 E24.87931
G1 X164.201 Y147.634 E24.90228
G1 X170.533 Y153.967 E25.20088
G1 X169.643 Y153.967 E25.23055
G1 X163.510 Y147.834 E25.51975
G1 X162.774 Y147.988 E25.54481
G1 X168.753 Y153.967 E25.82674
G1 X167.863 Y153.967 E25.85641
G1 X162.000 Y148.104 E26.13288
G1 X161.158 Y148.151 E26.16101
G1 X166.974 Y153.967 E26.43524
G1 X166.084 Y153.967 E26.46491
G1 X160.274 Y148.158 E26.73883
G1 X159.384 Y148.158 E26.76850
G1 X165.194 Y153.967 E27.04241
G1 X164.304 Y153.967 E27.07209
G1 X158.494 Y148.158 E27.34600
G1 X157.605 Y148.158 E27.37567
G1 X163.414 Y153.967 E27.64959
G1 X162.524 Y153.967 E27.67926
G1 X156.715 Y148.158 E27.95318
G1 X155.825 Y148.158 E27.98285
G1 X161.634 Y153.967 E28.25676
G1 X160.744 Y153.967 E28.28643
G1 X154.935 Y148.158 E28.56035
G1 X154.045 Y148.158 E28.59002
G1 X159.854 Y153.967 E28.86394
G1 X158.964 Y153.967 E28.89361
G1 X153.155 Y148.158 E29.16752
G1 X152.265 Y148.158 E29.19720
G1 X158.074 Y153.967 E29.47111
G1 X157.184 Y153.967 E29.50078
G1 X151.375 Y148.158 E29.77470
G1 X150.485 Y148.158 E29.80437
G1 X156.294 Y153.967 E30.07828
G1 X155.404 Y153.967 E30.10796
G1 X149.572 Y148.135 E30.38297
G1 X148.598 Y148.051 E30.41554
G1 X154.514 Y153.967 E30.69447
G1 X153.624 Y153.967 E30.72415
G1 X147.491 Y147.834 E31.01334
G1 X146.154 Y147.387 F10800.000
G1 X152.734 Y153.967 E31.32361 F1080.000
G1 X151.844 Y153.967 E31.35328
G1 X144.200 Y146.323 E31.71371
G1 X141.677 Y143.800 F10800.000
G1 X122.436 Y124.559 E32.62098 F1080.000
G1 X122.436 Y123.669 E32.65065
G1 X140.613 Y141.846 E33.50775
G1 X140.169 Y140.512 E33.55465
G1 X122.436 Y122.779 E34.39079
G1 X122.580 Y122.033 E34.41612
G1 X139.949 Y139.402 E35.23509
G1 X139.864 Y138.427 E35.26771
G1 X123.470 Y122.033 E36.04072
G1 X124.360 Y122.033 E36.07039
G1 X139.866 Y137.539 E36.80153
G1 X139.929 Y136.712 E36.82916
G1 X125.250 Y122.033 E37.52133
G1 X126.140 Y122.033 E37.55100
G1 X140.059 Y135.952 E38.20730
G1 X140.241 Y135.244 E38.23166
G1 X127.030 Y122.033 E38.85459
G1 X127.920 Y122.033 E38.88427
G1 X140.445 Y134.559 E39.47488
G1 X140.706 Y133.929 E39.49759
G1 X128.810 Y122.033 E40.05854
G1 X129.700 Y122.033 E40.08821
G1 X140.993 Y133.326 E40.62071
G1 X141.310 Y132.753 E40.64255
G1 X130.590 Y122.033 E41.14802
G1 X131.480 Y122.033 E41.17769
G1 X141.664 Y132.218 E41.65793
G1 X142.034 Y131.697 E41.67921
G1 X132.369 Y122.033 E42.13491
G1 X133.259 Y122.033 E42.16458
G1 X142.451 Y131.224 E42.59797
G1 X142.877 Y130.761 E42.61897
G1 X134.149 Y122.033 E43.03050
G1 X135.039 Y122.033 E43.06018
G1 X143.347 Y130.341 E43.45191
G1 X143.834 Y129.937 E43.47298
G1 X135.929 Y122.033 E43.84568
G1 X136.819 Y122.033 E43.87536
G1 X144.354 Y129.568 E44.23064
G1 X144.905 Y129.228 E44.25221
G1 X137.709 Y122.033 E44.59149
G1 X138.599 Y122.033 E44.62116
G1 X145.481 Y128.915 E44.94566
G1 X146.094 Y128.638 E44.96809
G1 X139.489 Y122.033 E45.27953
G1 X140.379 Y122.033 E45.30920
G1 X146.731 Y128.385 E45.60872
G1 X147.422 Y128.186 E45.63269
G1 X141.269 Y122.033 E45.92282
G1 X142.159 Y122.033 E45.95249
G1 X148.151 Y128.025 E46.23502
G1 X148.919 Y127.903 E46.26095
G1 X143.049 Y122.033 E46.53772
G1 X143.939 Y122.033 E46.56739
G1 X149.761 Y127.855 E46.84190
G1 X150.638 Y127.842 E46.87116
G1 X144.829 Y122.033 E47.14507
G1 X145.719 Y122.033 E47.17474
G1 X151.528 Y127.842 E47.44866
G1 X152.418 Y127.842 E47.47833
G1 X146.609 Y122.033 E47.75224
G1 X147.499 Y122.033 E47.78192
G1 X153.308 Y127.842 E48.05583
G1 X154.198 Y127.842 E48.08550
G1 X148.389 Y122.033 E48.35942
G1 X149.279 Y122.033 E48.38909
G1 X155.088 Y127.842 E48.66300
G1 X155.978 Y127.842 E48.69268
G1 X150.169 Y122.033 E48.96659
G1 X151.059 Y122.033 E48.99626
G1 X156.868 Y127.842 E49.27018
G1 X157.758 Y127.842 E49.29985
G1 X151.948 Y122.033 E49.57376
G1 X152.838 Y122.033 E49.60344
G1 X158.648 Y127.842 E49.87735
G1 X159.538 Y127.842 E49.90702
G1 X153.728 Y122.033 E50.18094
G1 X154.618 Y122.033 E50.21061
G1 X160.428 Y127.842 E50.48453
G1 X161.334 Y127.859 E50.51476
G1 X155.508 Y122.033 E50.78945
G1 X156.398 Y122.033 E50.81912
G1 X162.296 Y127.931 E51.09722
G1 X163.386 Y128.131 E51.13416
G1 X157.288 Y122.033 E51.42168
G1 X158.178 Y122.033 E51.45135
G1 X164.706 Y128.561 E51.75915
G1 X166.498 Y129.463 F10800.000
G1 X159.068 Y122.033 E52.10948 F1080.000
G1 X159.958 Y122.033 E52.13916
G1 X180.467 Y142.542 E53.10620
G1 X180.467 Y141.652 E53.13587
G1 X160.848 Y122.033 E54.06095
G1 X161.738 Y122.033 E54.09062
G1 X180.467 Y140.762 E54.97373
G1 X180.467 Y139.872 E55.00341
G1 X162.628 Y122.033 E55.84456
G1 X163.518 Y122.033 E55.87423
G1 X180.467 Y138.982 E56.67342
G1 X180.467 Y138.092 E56.70309
G1 X164.408 Y122.033 E57.46032
G1 X165.298 Y122.033 E57.48999
G1 X180.467 Y137.202 E58.20525
G1 X180.467 Y136.312 E58.23492
G1 X166.188 Y122.033 E58.90822
G1 X167.078 Y122.033 E58.93789
G1 X180.467 Y135.422 E59.56923
G1 X180.467 Y134.532 E59.59890
G1 X167.968 Y122.033 E60.18827
G1 X168.858 Y122.033 E60.21794
G1 X180.467 Y133.642 E60.76535
G1 X180.467 Y132.752 E60.79502
G1 X169.748 Y122.033 E61.30047
G1 X170.638 Y122.033 E61.33014
G1 X180.467 Y131.862 E61.79362
G1 X180.467 Y130.972 E61.82330
G1 X171.528 Y122.033 E62.24482
G1 X172.417 Y122.033 E62.27449
G1 X180.467 Y130.083 E62.65404
G1 X180.467 Y129.193 E62.68372
G1 X173.307 Y122.033 E63.02131
G1 X174.197 Y122.033 E63.05098
G1 X180.467 Y128.303 E63.34661
G1 X180.467 Y127.413 E63.37628
G1 X175.087 Y122.033 E63.62995
G1 X175.977 Y122.033 E63.65962
G1 X180.467 Y126.523 E63.87132
G1 X180.467 Y125.633 E63.90099
G1 X176.867 Y122.033 E64.07073
G1 X177.757 Y122.033 E64.10041
G1 X180.467 Y124.743 E64.22818
G1 X180.467 Y123.853 E64.25785
G1 X178.647 Y122.033 E64.34367
G1 X179.537 Y122.033 E64.37334
G1 X180.467 Y122.963 E64.41719
G1 X180.467 Y122.073 E64.44686
G1 X180.427 Y122.033 E64.44875
G1 X180.875 Y131.180 F10800.000
G1 X160.875 Y154.375 F10800.000
G1 X150.954 Y153.967 F10800.000
G1 X122.436 Y125.448 E65.79346 F1080.000
G1 X122.436 Y126.338 E65.82313
G1 X150.064 Y153.967 E67.12588
G1 X149.174 Y153.967 E67.15555
G1 X122.436 Y127.228 E68.41633
G1 X122.436 Y128.118 E68.44601
G1 X148.284 Y153.967 E69.66483
G1 X147.394 Y153.967 E69.69450
G1 X122.436 Y129.008 E70.87136
G1 X122.436 Y129.898 E70.90103
G1 X146.505 Y153.967 E72.03592
G1 X145.615 Y153.967 E72.06559
G1 X122.436 Y130.788 E73.15853
G1 X122.436 Y131.678 E73.18820
G1 X144.725 Y153.967 E74.23917
G1 X143.835 Y153.967 E74.26884
G1 X122.436 Y132.568 E75.27784
G1 X122.436 Y133.458 E75.30751
G1 X142.945 Y153.967 E76.27456
G1 X142.055 Y153.967 E76.30423
G1 X122.436 Y134.348 E77.22931
G1 X122.436 Y135.238 E77.25898
G1 X141.165 Y153.967 E78.14209
G1 X140.275 Y153.967 E78.17176
G1 X122.436 Y136.128 E79.01292
G1 X122.436 Y137.018 E79.04259
G1 X139.385 Y153.967 E79.84178
G1 X138.495 Y153.967 E79.87145
G1 X122.436 Y137.908 E80.62867
G1 X122.436 Y138.798 E80.65835
G1 X137.605 Y153.967 E81.37361
G1 X136.715 Y153.967 E81.40328
G1 X122.436 Y139.688 E82.07658
G1 X122.436 Y140.578 E82.10625
G1 X135.825 Y153.967 E82.73759
G1 X134.935 Y153.967 E82.76726
G1 X122.436 Y141.468 E83.35663
G1 X122.436 Y142.358 E83.38630
G1 X134.045 Y153.967 E83.93371
G1 X133.155 Y153.967 E83.96338
G1 X122.436 Y143.248 E84.46883
G1 X122.436 Y144.138 E84.49850
G1 X132.265 Y153.967 E84.96198
G1 X131.375 Y153.967 E84.99165
G1 X122.436 Y145.028 E85.41317
G1 X122.436 Y145.917 E85.44285
G1 X130.485 Y153.967 E85.82240
G1 X129.595 Y153.967 E85.85207
G1 X122.436 Y146.807 E86.18967
G1 X122.436 Y147.697 E86.21934
G1 X128.705 Y153.967 E86.51497
G1 X127.815 Y153.967 E86.54464
G1 X122.436 Y148.587 E86.79830
G1 X122.436 Y149.477 E86.82798
G1 X126.925 Y153.967 E87.03968
G1 X126.036 Y153.967 E87.06935
G1 X122.436 Y150.367 E87.23909
G1 X122.436 Y151.257 E87.26876
G1 X125.146 Y153.967 E87.39654
G1 X124.256 Y153.967 E87.42621
G1 X122.436 Y152.147 E87.51202
G1 X122.436 Y153.037 E87.54170
G1 X123.366 Y153.967 E87.58555
G1 X122.476 Y153.967 E87.61522
G1 X122.436 Y153.927 E87.61711
G1 F1800.000 E85.61711
G92 E0
G1 Z0.570 F10800.000
G1 X168.257 Y143.777 F10800.000
G1 E2.00000 F1800.000
G1 X167.505 Y144.608 E2.01316 F6000.000
G1 X166.788 Y145.248 E2.02444
G1 X165.939 Y145.851 E2.03666
G1 X164.954 Y146.387 E2.04982
G1 X164.066 Y146.754 E2.06110
G1 X163.066 Y147.043 E2.07332
G1 X162.039 Y147.217 E2.08555
G1 X161.015 Y147.275 E2.09759
G1 X149.995 Y147.275 E2.22695
G1 X148.996 Y147.220 E2.23869
G1 X147.934 Y147.043 E2.25132
G1 X146.935 Y146.755 E2.26353
G1 X145.974 Y146.357 E2.27574
G1 X145.064 Y145.853 E2.28795
G1 X144.216 Y145.251 E2.30016
G1 X143.440 Y144.558 E2.31237
G1 X142.800 Y143.842 E2.32364
G1 X142.146 Y142.934 E2.33678
G1 X141.643 Y142.024 E2.34899
G1 X141.245 Y141.063 E2.36120
G1 X140.979 Y140.140 E2.37247
G1 X140.782 Y139.038 E2.38561
G1 X140.724 Y138.000 E2.39782
G1 X140.782 Y136.962 E2.41002
G1 X140.979 Y135.860 E2.42316
G1 X141.245 Y134.937 E2.43444
G1 X141.643 Y133.976 E2.44665
G1 X142.146 Y133.066 E2.45885
G1 X142.747 Y132.217 E2.47106
G1 X143.500 Y131.389 E2.48420
G1 X144.216 Y130.749 E2.49547
G1 X145.064 Y130.147 E2.50768
G1 X145.974 Y129.643 E2.51989
G1 X146.935 Y129.245 E2.53210
G1 X147.934 Y128.957 E2.54431
G1 X148.996 Y128.780 E2.55694
G1 X149.995 Y128.725 E2.56869
G1 X161.015 Y128.725 E2.69804
G1 X161.959 Y128.778 E2.70914
G1 X163.066 Y128.957 E2.72230 F6000.000
G1 X164.066 Y129.246 E2.73453
