; generated by Slic3r 1.1.7 on 2015-04-01 at 12:48:52

; perimeters extrusion width = 0.35mm
; infill extrusion width = 0.46mm
; solid infill extrusion width = 0.46mm
; top infill extrusion width = 0.46mm

G21 ; set units to millimeters
M107
G28 ; home all axes
M203 X192 Y208 Z3 ; Speed limits to minimize skipped steps when moving really fast courtesy of forum.lulzbot.com user 1013
G90 ; use absolute coordinates
G92 E0
M82 ; use absolute distances for extrusion
G1 F1800.000 E-2.00000
G92 E0
G1 Z0.350 F10800.000
G1 X120.784 Y116.378 F10800.000
G1 E2.00000 F1800.000
G1 X122.537 Y114.899 E2.07647 F1080.000
G1 X124.689 Y114.106 E2.15293
G1 X125.869 Y114.000 E2.19243
G1 X172.375 Y114.000 E3.74301
G1 X174.634 Y114.397 E3.81948
G1 X176.622 Y115.540 E3.89595 F1080.000
G1 X178.101 Y117.293 E3.97242
G1 X178.894 Y119.445 E4.04888
G1 X179.000 Y120.625 E4.08838
G1 X179.000 Y155.375 E5.24700
G1 X178.603 Y157.634 E5.32346
G1 X177.460 Y159.622 E5.39993
G1 X175.707 Y161.101 E5.47640
G1 X173.555 Y161.894 E5.55286
G1 X172.375 Y162.000 E5.59236
G1 X125.869 Y162.000 E7.14294
G1 X123.610 Y161.603 E7.21941
G1 X121.622 Y160.460 E7.29588
G1 X120.143 Y158.707 E7.37235
G1 X119.350 Y156.555 E7.44881
G1 X119.244 Y155.375 E7.48831
G1 X119.244 Y120.625 E8.64693
G1 X119.641 Y118.366 E8.72339
G1 X120.758 Y116.424 E8.79811
G1 F1800.000 E6.79811
G92 E0
G1 X140.117 Y128.246 F10800.000
G1 E2.00000 F1800.000
G1 X139.589 Y128.682 E2.02283 F1800.000
G1 X138.970 Y128.974 E2.04567
G1 X138.297 Y129.102 E2.06852
G1 X137.613 Y129.059 E2.09136
G1 X136.961 Y128.848 E2.11419
G1 X136.383 Y128.481 E2.13703
G1 X135.914 Y127.981 E2.15987
G1 X135.584 Y127.381 E2.18271
G1 X135.414 Y126.717 E2.20556
G1 X135.414 Y126.033 E2.22837
G1 X135.584 Y125.369 E2.25122
G1 X135.914 Y124.769 E2.27406
G1 X136.383 Y124.269 E2.29690
G1 X136.961 Y123.903 E2.31973
G1 X137.613 Y123.691 E2.34258
G1 X138.297 Y123.648 E2.36542
G1 X138.428 Y123.673 E2.36989
G1 X138.970 Y123.776 E2.38826 F1800.000
G1 X139.589 Y124.068 E2.41109
G1 X140.117 Y124.504 E2.43393
G1 X140.520 Y125.059 E2.45677
G1 X140.772 Y125.696 E2.47961
G1 X140.858 Y126.375 E2.50244
G1 X140.772 Y127.054 E2.52527
G1 X140.520 Y127.691 E2.54812
G1 X140.148 Y128.203 E2.56921
G1 X139.658 Y127.814 F10800.000
G1 X139.252 Y128.150 E2.58678 F1260.000
G1 X138.775 Y128.375 E2.60435
G1 X138.257 Y128.474 E2.62193
G1 X137.731 Y128.441 E2.63950
G1 X137.230 Y128.278 E2.65708
G1 X136.785 Y127.995 E2.67465
G1 X136.424 Y127.611 E2.69223
G1 X136.170 Y127.149 E2.70980
G1 X136.039 Y126.638 E2.72738
G1 X136.039 Y126.112 E2.74494
G1 X136.170 Y125.601 E2.76252
G1 X136.424 Y125.139 E2.78010
G1 X136.785 Y124.755 E2.79767
G1 X137.230 Y124.472 E2.81524
G1 X137.731 Y124.309 E2.83282
G1 X138.202 Y124.280 E2.84855
G1 X138.775 Y124.375 E2.86792 F1260.000
G1 X139.252 Y124.600 E2.88549
G1 X139.658 Y124.936 E2.90306
G1 X139.968 Y125.362 E2.92064
G1 X140.162 Y125.852 E2.93822
G1 X140.228 Y126.375 E2.95579
G1 X140.162 Y126.898 E2.97336
G1 X139.968 Y127.388 E2.99094
G1 X139.689 Y127.772 E3.00676
G1 F1800.000 E1.00676
G92 E0
G1 X138.180 Y123.931 F10800.000
G1 X153.914 Y126.718 F10800.000
G1 E2.00000 F1800.000
G1 X153.914 Y126.032 E2.02284 F1800.000
G1 X154.084 Y125.369 E2.04568
G1 X154.414 Y124.769 E2.06851
G1 X154.883 Y124.269 E2.09135
G1 X155.461 Y123.903 E2.11418
G1 X156.113 Y123.691 E2.13703
G1 X156.797 Y123.648 E2.15987
G1 X156.928 Y123.673 E2.16434
G1 X157.470 Y123.776 E2.18271 F1800.000
G1 X158.089 Y124.068 E2.20555
G1 X158.617 Y124.504 E2.22838
G1 X159.020 Y125.059 E2.25122
G1 X159.272 Y125.695 E2.27406
G1 X159.358 Y126.375 E2.29690
G1 X159.272 Y127.055 E2.31974
G1 X159.020 Y127.691 E2.34258
G1 X158.617 Y128.246 E2.36541
G1 X158.089 Y128.682 E2.38825
G1 X157.469 Y128.974 E2.41109
G1 X156.797 Y129.102 E2.43393
G1 X156.113 Y129.059 E2.45677
G1 X155.461 Y128.847 E2.47961
G1 X154.883 Y128.481 E2.50245
G1 X154.414 Y127.981 E2.52529
G1 X154.084 Y127.381 E2.54812
G1 X153.927 Y126.768 E2.56921
G1 X154.539 Y126.639 F10800.000
G1 X154.539 Y126.111 E2.58678 F1260.000
G1 X154.670 Y125.601 E2.60436
G1 X154.924 Y125.139 E2.62193
G1 X155.285 Y124.755 E2.63951
G1 X155.730 Y124.472 E2.65708
G1 X156.231 Y124.309 E2.67465
G1 X156.702 Y124.280 E2.69039
G1 X157.275 Y124.375 E2.70975 F1260.000
G1 X157.752 Y124.600 E2.72733
G1 X158.158 Y124.936 E2.74490
G1 X158.468 Y125.362 E2.76247
G1 X158.662 Y125.852 E2.78005
G1 X158.728 Y126.375 E2.79762
G1 X158.669 Y126.843 E2.81336
G1 X158.468 Y127.388 E2.83272
G1 X158.158 Y127.814 E2.85029
G1 X157.752 Y128.150 E2.86786
G1 X157.275 Y128.375 E2.88544
G1 X156.757 Y128.474 E2.90301
G1 X156.231 Y128.441 E2.92059
G1 X155.730 Y128.278 E2.93817
G1 X155.285 Y127.995 E2.95574
G1 X154.924 Y127.611 E2.97331
G1 X154.670 Y127.149 E2.99089
G1 X154.552 Y126.689 E3.00671
G1 F1800.000 E1.00671
G92 E0
G1 X156.811 Y123.947 F10800.000
G1 X156.113 Y146.941 F10800.000
G1 E2.00000 F1800.000
G1 X156.797 Y146.898 E2.02284 F1800.000
G1 X156.928 Y146.923 E2.02731
G1 X157.470 Y147.026 E2.04568 F1800.000
G1 X158.089 Y147.318 E2.06852
G1 X158.617 Y147.754 E2.09135
G1 X159.020 Y148.309 E2.11419
G1 X159.272 Y148.945 E2.13703
G1 X159.358 Y149.625 E2.15987
G1 X159.272 Y150.305 E2.18271
G1 X159.020 Y150.941 E2.20555
G1 X158.617 Y151.496 E2.22838
G1 X158.089 Y151.932 E2.25122
G1 X157.968 Y151.989 E2.25569
G1 X157.469 Y152.224 E2.27406
G1 X156.797 Y152.352 E2.29690
G1 X156.113 Y152.309 E2.31974
G1 X155.461 Y152.097 E2.34258
G1 X154.883 Y151.731 E2.36541
G1 X154.414 Y151.231 E2.38825
G1 X154.084 Y150.631 E2.41109
G1 X153.914 Y149.968 E2.43393
G1 X153.914 Y149.282 E2.45677
G1 X154.084 Y148.619 E2.47960
G1 X154.414 Y148.019 E2.50244
G1 X154.883 Y147.519 E2.52528
G1 X155.461 Y147.153 E2.54811
G1 X156.063 Y146.957 E2.56921
G1 X156.231 Y147.559 F10800.000
G1 X156.702 Y147.530 E2.58494 F1260.000
G1 X157.275 Y147.625 E2.60431 F1260.000
G1 X157.752 Y147.850 E2.62188
G1 X158.158 Y148.186 E2.63945
G1 X158.468 Y148.612 E2.65703
G1 X158.662 Y149.102 E2.67460
G1 X158.728 Y149.625 E2.69217
G1 X158.662 Y150.148 E2.70975
G1 X158.468 Y150.638 E2.72732
G1 X158.158 Y151.064 E2.74490
G1 X157.752 Y151.400 E2.76247
G1 X157.275 Y151.625 E2.78005
G1 X156.757 Y151.724 E2.79762
G1 X156.231 Y151.691 E2.81520
G1 X155.730 Y151.528 E2.83277
G1 X155.285 Y151.245 E2.85034
G1 X154.924 Y150.861 E2.86792
G1 X154.670 Y150.399 E2.88549
G1 X154.539 Y149.889 E2.90306
G1 X154.539 Y149.361 E2.92064
G1 X154.670 Y148.851 E2.93821
G1 X154.924 Y148.389 E2.95579
G1 X155.285 Y148.005 E2.97336
G1 X155.730 Y147.722 E2.99093
G1 X156.181 Y147.576 E3.00676
G1 X156.890 Y147.235 F10800.000
G1 F1800.000 E1.00676
G92 E0
G1 X140.843 Y149.506 F10800.000
G1 E2.00000 F1800.000
G1 X140.858 Y149.625 E2.00400 F1800.000
G1 X140.772 Y150.304 E2.02684
G1 X140.520 Y150.941 E2.04968
G1 X140.117 Y151.496 E2.07252
G1 X140.014 Y151.581 E2.07699
G1 X139.589 Y151.932 E2.09535
G1 X138.970 Y152.224 E2.11819
G1 X138.297 Y152.352 E2.14103
G1 X137.613 Y152.309 E2.16387
G1 X136.961 Y152.098 E2.18671
G1 X136.383 Y151.731 E2.20955
G1 X135.914 Y151.231 E2.23239
G1 X135.584 Y150.631 E2.25523
G1 X135.447 Y150.097 E2.27360
G1 X135.414 Y149.967 E2.27807
G1 X135.414 Y149.283 E2.30089
G1 X135.584 Y148.619 E2.32374
G1 X135.914 Y148.019 E2.34657
G1 X136.383 Y147.519 E2.36942
G1 X136.961 Y147.153 E2.39225
G1 X137.613 Y146.941 E2.41509
G1 X138.297 Y146.898 E2.43794
G1 X138.428 Y146.923 E2.44241
G1 X138.970 Y147.026 E2.46078 F1800.000
G1 X139.589 Y147.318 E2.48361
G1 X140.117 Y147.754 E2.50644
G1 X140.520 Y148.309 E2.52928
G1 X140.772 Y148.946 E2.55213
G1 X140.836 Y149.454 E2.56921
G1 X140.223 Y149.584 F10800.000
G1 X140.162 Y150.148 E2.58811 F1260.000
G1 X139.968 Y150.638 E2.60568
G1 X139.658 Y151.064 E2.62326
G1 X139.252 Y151.400 E2.64083
G1 X138.775 Y151.625 E2.65840
G1 X138.257 Y151.724 E2.67598
G1 X137.731 Y151.691 E2.69355
G1 X137.230 Y151.528 E2.71113
G1 X136.785 Y151.245 E2.72870
G1 X136.424 Y150.861 E2.74628
G1 X136.170 Y150.399 E2.76385
G1 X136.052 Y149.942 E2.77959
G1 X136.039 Y149.362 E2.79894
G1 X136.170 Y148.851 E2.81652
G1 X136.424 Y148.389 E2.83409
G1 X136.785 Y148.005 E2.85167
G1 X137.230 Y147.722 E2.86924
G1 X137.731 Y147.559 E2.88682
G1 X138.202 Y147.530 E2.90255
G1 X138.775 Y147.625 E2.92192 F1260.000
G1 X139.252 Y147.850 E2.93949
G1 X139.658 Y148.186 E2.95706
G1 X139.968 Y148.612 E2.97464
G1 X140.162 Y149.102 E2.99222
G1 X140.216 Y149.532 E3.00667
G1 F1800.000 E1.00667
G92 E0
G1 X138.136 Y147.186 F10800.000
G1 X142.725 Y152.975 F10800.000
G1 E2.00000 F1800.000
G1 X150.175 Y152.975 E2.24839 F1800.000
G1 X150.175 Y143.975 E2.54846
G1 X157.055 Y143.975 E2.77786
G1 X158.519 Y143.784 E2.82709
G1 X159.946 Y143.201 E2.87845
G1 X160.067 Y143.124 E2.88325
G1 X161.181 Y142.270 E2.93006
G1 X161.282 Y142.165 E2.93493
G1 X162.142 Y141.045 E2.98199
G1 X162.213 Y140.917 E2.98686
G1 X162.753 Y139.613 E3.03392
G1 X162.790 Y139.472 E3.03879
G1 X162.974 Y138.073 E3.08584
G1 X162.974 Y137.927 E3.09071
G1 X162.790 Y136.528 E3.13776
G1 X162.753 Y136.387 E3.14263
G1 X162.213 Y135.083 E3.18969
G1 X162.142 Y134.955 E3.19456
G1 X161.282 Y133.835 E3.24162
G1 X161.181 Y133.730 E3.24649
G1 X159.946 Y132.799 E3.29808
G1 X158.519 Y132.216 E3.34944
G1 X157.055 Y132.025 E3.39868
G1 X150.175 Y132.025 E3.62808
G1 X150.175 Y123.025 E3.92815
G1 X142.725 Y123.025 E4.17654
G1 X142.725 Y132.025 E4.47661
G1 X126.844 Y132.025 E5.00612
G1 X126.844 Y121.600 E5.35371
G1 X171.400 Y121.600 E6.83929
G1 X171.400 Y154.400 E7.93290
G1 X126.844 Y154.400 E9.41848
G1 X126.844 Y143.975 E9.76607
G1 X142.725 Y143.975 E10.29558
G1 X142.725 Y152.922 E10.59390
G1 X143.350 Y152.350 F10800.000
G1 X149.550 Y152.350 E10.80062 F1260.000
G1 X149.550 Y143.350 E11.10069
G1 X157.020 Y143.350 E11.34975
G1 X158.373 Y143.173 E11.39526
G1 X159.709 Y142.611 E11.44358
G1 X160.764 Y141.803 E11.48788
G1 X161.619 Y140.700 E11.53440
G1 X162.159 Y139.414 E11.58091
G1 X162.349 Y137.968 E11.62954
G1 X162.159 Y136.586 E11.67605
G1 X161.650 Y135.356 E11.72044
G1 X160.764 Y134.197 E11.76908
G1 X159.657 Y133.356 E11.81544
G1 X158.373 Y132.827 E11.86171
G1 X157.020 Y132.650 E11.90723
G1 X149.550 Y132.650 E12.15628
G1 X149.550 Y123.650 E12.45636
G1 X143.350 Y123.650 E12.66308
G1 X143.350 Y132.650 E12.96315
G1 X126.219 Y132.650 E13.53433
G1 X126.219 Y120.975 E13.92359
G1 X172.025 Y120.975 E15.45084
G1 X172.025 Y155.025 E16.58612
G1 X126.219 Y155.025 E18.11336
G1 X126.219 Y143.350 E18.50263
G1 X143.350 Y143.350 E19.07381
G1 X143.350 Y152.298 E19.37213
G1 X143.350 Y152.700 F10800.000
G1 X141.166 Y148.765 F10800.000
G1 X142.292 Y149.891 E19.42522 F1080.000
G1 X142.292 Y150.798 E19.45547
G1 X141.274 Y149.781 E19.50346
G1 X141.139 Y150.553 E19.52959
G1 X142.292 Y151.706 E19.58395
G1 X142.292 Y152.613 E19.61419
G1 X140.872 Y151.193 E19.68114
G1 X140.490 Y151.718 E19.70280
G1 X141.980 Y153.208 E19.77302
G1 X141.832 Y153.967 E19.79882
G1 X140.011 Y152.146 E19.88470
G1 X139.439 Y152.481 E19.90680
G1 X140.925 Y153.967 E19.97685
G1 X140.018 Y153.967 E20.00710
G1 X138.756 Y152.705 E20.06659
G1 X137.905 Y152.761 E20.09503
G1 X139.110 Y153.967 E20.15188
G1 X138.203 Y153.967 E20.18212
G1 X136.647 Y152.411 E20.25551
G1 X127.277 Y153.927 F10800.000
G1 X127.317 Y153.967 E20.25739 F1080.000
G1 X128.224 Y153.967 E20.28764
G1 X127.277 Y153.020 E20.33230
G1 X127.277 Y152.113 E20.36255
G1 X129.131 Y153.967 E20.44999
G1 X130.038 Y153.967 E20.48024
G1 X127.277 Y151.205 E20.61045
G1 X127.277 Y150.298 E20.64070
G1 X130.946 Y153.967 E20.81369
G1 X131.853 Y153.967 E20.84394
G1 X127.277 Y149.391 E21.05971
G1 X127.277 Y148.484 E21.08995
G1 X132.760 Y153.967 E21.34850
G1 X133.667 Y153.967 E21.37875
G1 X127.277 Y147.577 E21.68007
G1 X127.277 Y146.669 E21.71032
G1 X134.574 Y153.967 E22.05441
G1 X135.482 Y153.967 E22.08466
G1 X127.277 Y145.762 E22.47154
G1 X127.277 Y144.855 E22.50178
G1 X136.389 Y153.967 E22.93143
G1 X137.296 Y153.967 E22.96168
G1 X127.737 Y144.408 E23.41242
G1 X128.644 Y144.408 E23.44266
G1 X135.362 Y151.126 E23.75945
G1 X134.981 Y149.838 E23.80426
G1 X129.551 Y144.408 E24.06028
G1 X130.458 Y144.408 E24.09053
G1 X135.042 Y148.991 E24.30664
G1 X135.263 Y148.305 E24.33067
G1 X131.366 Y144.408 E24.51443
G1 X132.273 Y144.408 E24.54467
G1 X135.593 Y147.728 E24.70123
G1 X136.032 Y147.260 E24.72263
G1 X133.180 Y144.408 E24.85713
G1 X134.087 Y144.408 E24.88738
G1 X136.568 Y146.889 E25.00437
G1 X137.205 Y146.618 E25.02742
G1 X134.994 Y144.408 E25.13164
G1 X135.902 Y144.408 E25.16189
G1 X137.978 Y146.484 E25.25978
G1 X138.990 Y146.589 E25.29372
G1 X136.809 Y144.408 E25.39657
G1 X137.716 Y144.408 E25.42682
G1 X142.292 Y148.984 E25.64259
G1 X142.292 Y148.077 E25.67283
G1 X138.623 Y144.408 E25.84582
G1 X139.530 Y144.408 E25.87607
G1 X142.292 Y147.170 E26.00629
G1 X142.292 Y146.262 E26.03654
G1 X140.438 Y144.408 E26.12397
G1 X141.345 Y144.408 E26.15422
G1 X142.292 Y145.355 E26.19888
G1 X142.292 Y144.448 E26.22913
G1 X142.252 Y144.408 E26.23102
G1 X142.413 Y153.688 F10800.000
G1 X150.487 Y153.688 E26.65103 F360.000
G1 X150.200 Y150.212 F10800.000
G1 X171.375 Y136.790 F10800.000
G1 X156.540 Y121.625 F10800.000
G1 X150.487 Y122.313 F10800.000
G1 X142.413 Y122.313 E27.07104 F360.000
G1 X141.940 Y122.033 F10800.000
G1 X141.980 Y122.073 E27.07293 F1080.000
G1 X141.980 Y122.969 E27.10279
G1 X141.044 Y122.033 E27.14691
G1 X140.148 Y122.033 E27.17677
G1 X142.292 Y124.177 E27.27785
G1 X142.282 Y123.271 E27.30806
G1 X142.292 Y125.072 F10800.000
G1 X139.253 Y122.033 E27.45137 F1080.000
G1 X138.357 Y122.033 E27.48123
G1 X142.292 Y125.968 E27.66677
G1 X142.292 Y126.864 E27.69664
G1 X141.220 Y125.792 E27.74717
G1 X141.251 Y126.718 E27.77806
G1 X142.292 Y127.759 E27.82715
G1 X142.292 Y128.655 E27.85702
G1 X141.083 Y127.445 E27.91404
G1 X140.793 Y128.052 E27.93643
G1 X142.292 Y129.550 E28.00711
G1 X142.292 Y130.446 E28.03697
G1 X140.411 Y128.565 E28.12568
G1 X139.921 Y128.970 E28.14689
G1 X142.292 Y131.342 E28.25871
G1 X141.647 Y131.592 E28.28179
G1 X139.335 Y129.280 E28.39079
G1 X138.637 Y129.478 E28.41498
G1 X140.751 Y131.592 E28.51466
G1 X139.856 Y131.592 E28.54452
G1 X137.766 Y129.503 E28.64303
G1 X136.323 Y128.955 F10800.000
G1 X138.960 Y131.592 E28.76736 F1080.000
G1 X138.064 Y131.592 E28.79722
G1 X128.505 Y122.033 E29.24795
G1 X129.401 Y122.033 E29.27781
G1 X135.507 Y128.139 E29.56572
G1 X134.981 Y126.717 F10800.000
G1 X130.296 Y122.033 E29.78660 F1080.000
G1 X131.192 Y122.033 E29.81646
G1 X135.013 Y125.854 E29.99662
G1 X135.209 Y125.154 E30.02085
G1 X132.088 Y122.033 E30.16800
G1 X132.983 Y122.033 E30.19786
G1 X135.526 Y124.576 E30.31776
G1 X135.947 Y124.101 E30.33892
G1 X133.879 Y122.033 E30.43644
G1 X134.775 Y122.033 E30.46630
G1 X136.454 Y123.712 E30.54547
G1 X137.054 Y123.417 E30.56778
G1 X135.670 Y122.033 E30.63304
G1 X136.566 Y122.033 E30.66290
G1 X137.779 Y123.246 E30.72012
G1 X138.715 Y123.287 E30.75136
G1 X137.461 Y122.033 E30.81048
G1 X126.869 Y121.954 F10800.000
G1 X137.169 Y131.592 F10800.000
G1 X127.610 Y122.033 E31.26122 F1080.000
G1 X127.277 Y122.596 E31.28302
G1 X136.273 Y131.592 E31.70721
G1 X135.377 Y131.592 E31.73708
G1 X127.277 Y123.491 E32.11904
G1 X127.277 Y124.387 E32.14890
G1 X134.482 Y131.592 E32.48863
G1 X133.586 Y131.592 E32.51850
G1 X127.277 Y125.283 E32.81600
G1 X127.277 Y126.178 E32.84586
G1 X132.691 Y131.592 E33.10113
G1 X131.795 Y131.592 E33.13099
G1 X127.277 Y127.074 E33.34403
G1 X127.277 Y127.970 E33.37389
G1 X130.899 Y131.592 E33.54470
G1 X130.004 Y131.592 E33.57457
G1 X127.277 Y128.865 E33.70314
G1 X127.277 Y129.761 E33.73301
G1 X129.108 Y131.592 E33.81935
G1 X128.212 Y131.592 E33.84922
G1 X127.277 Y130.656 E33.89333
G1 X127.277 Y131.552 E33.92319
G1 X127.317 Y131.592 E33.92508
G1 X136.540 Y121.625 F10800.000
G1 X147.823 Y123.000 F10800.000
G1 X156.540 Y121.625 F10800.000
G1 X150.200 Y130.623 F10800.000
G1 X150.608 Y131.244 F10800.000
G1 X150.956 Y131.592 E33.94151 F1080.000
G1 X151.851 Y131.592 E33.97135
G1 X150.608 Y130.349 E34.02998
G1 X150.608 Y129.454 E34.05981
G1 X152.746 Y131.592 E34.16063
G1 X153.641 Y131.592 E34.19047
G1 X150.608 Y128.559 E34.33348
G1 X150.608 Y127.664 E34.36332
G1 X154.536 Y131.592 E34.54853
G1 X155.431 Y131.592 E34.57836
G1 X150.608 Y126.769 E34.80576
G1 X150.608 Y125.875 E34.83560
